SF_Symbols/command.svg

<?xml version="1.0" encoding="UTF-8"?>
<svg xmlns="http://www.w3.org/2000/svg" xmlns:xlink="http://www.w3.org/1999/xlink" width="24" height="24" viewBox="0 0 24 24" version="1.1">
<g id="surface1">
<path style=" stroke:none;fill-rule:nonzero;fill:rgb(100%,100%,100%);fill-opacity:1;" d="M 7.464844 9.808594 L 7.464844 15.28125 L 5.109375 15.28125 C 4.34375 15.28125 3.644531 15.464844 3.011719 15.832031 C 2.378906 16.199219 1.871094 16.695312 1.488281 17.320312 C 1.113281 17.945312 0.925781 18.644531 0.925781 19.417969 C 0.925781 20.191406 1.113281 20.894531 1.488281 21.527344 C 1.871094 22.167969 2.378906 22.675781 3.011719 23.050781 C 3.644531 23.425781 4.34375 23.613281 5.109375 23.613281 C 5.882812 23.613281 6.585938 23.425781 7.21875 23.050781 C 7.851562 22.675781 8.355469 22.167969 8.730469 21.527344 C 9.105469 20.894531 9.292969 20.191406 9.292969 19.417969 L 9.292969 17.074219 L 14.695312 17.074219 L 14.695312 19.417969 C 14.695312 20.191406 14.882812 20.894531 15.257812 21.527344 C 15.640625 22.167969 16.148438 22.675781 16.78125 23.050781 C 17.414062 23.425781 18.113281 23.613281 18.878906 23.613281 C 19.652344 23.613281 20.355469 23.425781 20.988281 23.050781 C 21.621094 22.675781 22.125 22.167969 22.5 21.527344 C 22.875 20.894531 23.0625 20.191406 23.0625 19.417969 C 23.0625 18.644531 22.875 17.945312 22.5 17.320312 C 22.125 16.695312 21.621094 16.199219 20.988281 15.832031 C 20.355469 15.464844 19.652344 15.28125 18.878906 15.28125 L 16.523438 15.28125 L 16.523438 9.808594 L 18.878906 9.808594 C 19.652344 9.808594 20.355469 9.625 20.988281 9.257812 C 21.621094 8.890625 22.125 8.394531 22.5 7.769531 C 22.875 7.144531 23.0625 6.445312 23.0625 5.671875 C 23.0625 4.898438 22.875 4.195312 22.5 3.5625 C 22.125 2.921875 21.621094 2.414062 20.988281 2.039062 C 20.355469 1.65625 19.652344 1.464844 18.878906 1.464844 C 18.113281 1.464844 17.414062 1.65625 16.78125 2.039062 C 16.148438 2.414062 15.640625 2.921875 15.257812 3.5625 C 14.882812 4.195312 14.695312 4.898438 14.695312 5.671875 L 14.695312 8.015625 L 9.292969 8.015625 L 9.292969 5.671875 C 9.292969 4.898438 9.105469 4.195312 8.730469 3.5625 C 8.355469 2.921875 7.851562 2.414062 7.21875 2.039062 C 6.585938 1.65625 5.882812 1.464844 5.109375 1.464844 C 4.34375 1.464844 3.644531 1.65625 3.011719 2.039062 C 2.378906 2.414062 1.871094 2.921875 1.488281 3.5625 C 1.113281 4.195312 0.925781 4.898438 0.925781 5.671875 C 0.925781 6.445312 1.113281 7.144531 1.488281 7.769531 C 1.871094 8.394531 2.378906 8.890625 3.011719 9.257812 C 3.644531 9.625 4.34375 9.808594 5.109375 9.808594 Z M 5.109375 8.039062 C 4.679688 8.039062 4.285156 7.933594 3.925781 7.722656 C 3.574219 7.503906 3.289062 7.214844 3.070312 6.855469 C 2.859375 6.496094 2.753906 6.101562 2.753906 5.671875 C 2.753906 5.234375 2.859375 4.835938 3.070312 4.476562 C 3.289062 4.117188 3.574219 3.832031 3.925781 3.621094 C 4.285156 3.402344 4.679688 3.292969 5.109375 3.292969 C 5.539062 3.292969 5.929688 3.402344 6.28125 3.621094 C 6.640625 3.832031 6.925781 4.117188 7.136719 4.476562 C 7.355469 4.835938 7.464844 5.234375 7.464844 5.671875 L 7.464844 8.039062 Z M 18.878906 8.039062 L 16.523438 8.039062 L 16.523438 5.671875 C 16.523438 5.234375 16.628906 4.835938 16.839844 4.476562 C 17.058594 4.117188 17.34375 3.832031 17.695312 3.621094 C 18.054688 3.402344 18.449219 3.292969 18.878906 3.292969 C 19.308594 3.292969 19.703125 3.402344 20.0625 3.621094 C 20.421875 3.832031 20.707031 4.117188 20.917969 4.476562 C 21.128906 4.835938 21.234375 5.234375 21.234375 5.671875 C 21.234375 6.101562 21.128906 6.496094 20.917969 6.855469 C 20.707031 7.214844 20.421875 7.503906 20.0625 7.722656 C 19.703125 7.933594 19.308594 8.039062 18.878906 8.039062 Z M 9.292969 15.304688 L 9.292969 9.785156 L 14.695312 9.785156 L 14.695312 15.304688 Z M 5.109375 17.039062 L 7.464844 17.039062 L 7.464844 19.40625 C 7.464844 19.835938 7.355469 20.230469 7.136719 20.589844 C 6.925781 20.949219 6.640625 21.234375 6.28125 21.445312 C 5.929688 21.664062 5.539062 21.773438 5.109375 21.773438 C 4.679688 21.773438 4.285156 21.664062 3.925781 21.445312 C 3.574219 21.234375 3.289062 20.949219 3.070312 20.589844 C 2.859375 20.230469 2.753906 19.835938 2.753906 19.40625 C 2.753906 18.96875 2.859375 18.570312 3.070312 18.210938 C 3.289062 17.851562 3.574219 17.566406 3.925781 17.355469 C 4.285156 17.144531 4.679688 17.039062 5.109375 17.039062 Z M 18.878906 17.039062 C 19.308594 17.039062 19.703125 17.144531 20.0625 17.355469 C 20.421875 17.566406 20.707031 17.851562 20.917969 18.210938 C 21.128906 18.570312 21.234375 18.96875 21.234375 19.40625 C 21.234375 19.835938 21.128906 20.230469 20.917969 20.589844 C 20.707031 20.949219 20.421875 21.234375 20.0625 21.445312 C 19.703125 21.664062 19.308594 21.773438 18.878906 21.773438 C 18.449219 21.773438 18.054688 21.664062 17.695312 21.445312 C 17.34375 21.234375 17.058594 20.949219 16.839844 20.589844 C 16.628906 20.230469 16.523438 19.835938 16.523438 19.40625 L 16.523438 17.039062 Z M 18.878906 17.039062 "/>
</g>
</svg>

<svg xmlns="http://www.w3.org/2000/svg" width="24" height="24"><path style="stroke:none;fill-rule:nonzero;fill:#fff;fill-opacity:1" d="M7.465 9.809v5.472H5.109c-.765 0-1.464.184-2.097.551a4.278 4.278 0 0 0-1.524 1.488 3.997 3.997 0 0 0-.562 2.098c0 .773.187 1.477.562 2.11.383.64.89 1.148 1.524 1.523.636.375 1.36.57 2.097.562a4.075 4.075 0 0 0 2.11-.562 4.218 4.218 0 0 0 1.511-1.524c.375-.64.57-1.367.563-2.109v-2.344h5.402v2.344c0 .773.188 1.477.563 2.11.383.64.89 1.148 1.523 1.523.633.375 1.36.57 2.098.562a4.075 4.075 0 0 0 2.11-.562 4.187 4.187 0 0 0 1.511-1.524c.375-.64.57-1.367.563-2.109 0-.773-.188-1.473-.563-2.098a4.183 4.183 0 0 0-1.512-1.488 4.122 4.122 0 0 0-2.11-.55h-2.355V9.808h2.356c.773 0 1.476-.184 2.11-.551A4.183 4.183 0 0 0 22.5 7.77c.379-.633.574-1.36.563-2.098a4.075 4.075 0 0 0-.563-2.11 4.218 4.218 0 0 0-1.512-1.523 4.013 4.013 0 0 0-2.11-.574c-.765 0-1.464.191-2.097.574a4.312 4.312 0 0 0-1.523 1.523 4.075 4.075 0 0 0-.563 2.11v2.344H9.293V5.672a4.075 4.075 0 0 0-.563-2.11A4.217 4.217 0 0 0 7.22 2.04a4.013 4.013 0 0 0-2.11-.574c-.765 0-1.464.191-2.097.574a4.312 4.312 0 0 0-1.524 1.523 4.085 4.085 0 0 0-.562 2.11c0 .773.187 1.473.562 2.098.383.625.89 1.12 1.524 1.488.633.367 1.332.55 2.097.55Zm-2.356-1.77c-.43 0-.824-.105-1.183-.316a2.594 2.594 0 0 1-.856-.868c-.21-.359-.32-.77-.316-1.183 0-.438.105-.836.316-1.195a2.49 2.49 0 0 1 .856-.856c.36-.219.754-.328 1.183-.328.43 0 .82.11 1.172.328.36.211.645.496.856.856.218.359.328.757.328 1.195v2.367Zm13.77 0h-2.356V5.672c0-.438.106-.836.317-1.195a2.49 2.49 0 0 1 .855-.856c.36-.219.754-.328 1.184-.328.43 0 .824.11 1.183.328.36.211.645.496.856.856.21.359.316.757.316 1.195 0 .43-.105.824-.316 1.183-.211.36-.496.649-.855.868-.36.21-.754.316-1.184.316Zm-9.586 7.266v-5.52h5.402v5.52Zm-4.184 1.734h2.356v2.367c0 .43-.11.824-.328 1.184-.211.36-.496.644-.856.855a2.178 2.178 0 0 1-1.172.328c-.43 0-.824-.109-1.183-.328a2.49 2.49 0 0 1-.856-.855c-.21-.36-.32-.77-.316-1.184 0-.437.105-.836.316-1.195a2.49 2.49 0 0 1 .856-.856c.36-.21.754-.316 1.183-.316Zm13.77 0c.43 0 .824.106 1.183.316.36.211.645.497.856.856.21.36.316.758.316 1.195 0 .43-.105.824-.316 1.184-.211.36-.496.644-.855.855-.36.22-.754.328-1.184.328-.43 0-.824-.109-1.184-.328a2.49 2.49 0 0 1-.855-.855c-.211-.36-.32-.77-.317-1.184V17.04Zm0 0"/></svg>
